!!!COM: Haydn, Franz Joseph
!!!OTL: String Quartet in E-flat Major
!!!OPS: Opus 33
!!!ONM: No. 2
!!!OMD: Allegro moderato, cantabile
!!!OMV: 1
!!!SCT: H III:38
!!!SCA: Thematisch-bibliographisches Werkevererzeichnis (A. van Hoboken)
!!!YOR: Trautwein Edition
!!!ENC: Frances Bennion
!!!CDT: 1732/3/31/-1809/5/31/
!!!CNT: Oesterreich
!!!YEC: Copyright (c) 1994, 2000 Center for Computer Assisted Research in the Humanities
!!!YEM: Rights to all derivative editions reserved.
!!!YEM: Refer to licensing agreement for further details.
!!!YEN: United States of America
**kern	**kern	**kern	**kern
*k[b-e-a-]	*k[b-e-a-]	*k[b-e-a-]	*k[b-e-a-]
*E-:	*E-:	*E-:	*E-:
*clefF4	*clefC3	*clefG	*clefG
*M4/4	*M4/4	*M4/4	*M4/4
2..r	2..r	2..r	2..r
8r	8r	8r	16B-
.	.	.	16e-
=1	=1	=1	=1
4E-	8r	8r	2e-
.	8G	8e-	.
4r	8G	8e-	.
.	8G	8e-	.
4BB-	8r	8r	4.b-
.	8A-	8d	.
4r	8A-	8d	.
.	8A-	8d	16a-
.	.	.	16f
=2	=2	=2	=2
4EE-	8r	8r	8e-
.	8G	8e-	8g
4r	8G	8e-	8b-
.	8G	8e-	16ee-
.	.	.	16b-
4E-	8r	8r	4.b-
.	8G	8d-	.
4r	8G	8d-	.
.	8G	8d-	8b
=3	=3	=3	=3
4AA-	8r	8r	2cc
.	8A-	8c	.
4r	8A-	8c	.
.	8A-	8c	.
4BB-	8r	8r	4.a-
.	8F	8d	.
4r	8F	8d	.
.	8F	8d	16f
.	.	.	16d
=4	=4	=4	=4
8G	8G	8e-	8e-
8r	8r	8r	8g
8BB-	8A-	8d	8b-
8r	8r	8r	16a-
.	.	.	16f
4EE-	4G	4e-	4e-
4r	4r	4r	8r
.	.	.	16B-
.	.	.	16e-
=5	=5	=5	=5
8E-	3..r	3..r	8e-
8r	.	.	16B-
.	.	.	16f
8D	.	.	8f
8r	.	.	16B-
.	.	.	16g
4E-	.	.	8g
.	24r	24r	.
.	16dd	16ff#	4r
.	16ee-	16gg	.
4r	8ee-	8gg	.
.	8r	8r	16B-
.	.	.	16g
=6	=6	=6	=6
8E-	3..r	3..r	8g
8r	.	.	16B-
.	.	.	16a-
8F	.	.	8a-
8r	.	.	16B-
.	.	.	16b-
8G	.	.	8b-
.	24r	24r	.
4.r	16f#	16aa	4r
.	16g	16bb-	.
.	8g	8bb-	.
.	8r	8r	16b-
.	.	.	16bb-
=7	=7	=7	=7
8D	8f	8b-	16bb-
.	.	.	16aa-
8r	8r	8r	16b-
.	.	.	16aa-
8E-	8g	8b-	16aa-
.	.	.	16gg
8r	8r	8r	16b-
.	.	.	16bb-
8D	8f	8b-	16bb-
.	.	.	16aa-
8r	8r	8r	16b-
.	.	.	16aa-
8E-	8e-	8b-	16aa-
.	.	.	16gg
8r	8r	8r	16cc
.	.	.	16ccc
=8	=8	=8	=8
2AA-	4f	4cc	8.ccc
.	.	.	16gg
.	4A-	8cc	8aa-
.	.	16b-	16gg
.	.	16a-	16ff
4BB-	4B-	4g	4ee-
4r	4r	8f	8dd
.	.	8r	16B-
.	.	.	16e-
=9	=9	=9	=9
4E-	8r	8r	2e-
.	8G	8e-	.
4r	8G	8e-	.
.	8G	8e-	.
4BB-	8r	8r	4.b-
.	8A-	8d	.
4r	8A-	8d	.
.	8A-	8d	16a-
.	.	.	16f
=10	=10	=10	=10
4EE-	8r	8r	8e-
.	8G	8e-	8g
4r	8G	8e-	8b-
.	8G	8e-	16ee-
.	.	.	16b-
4E-	8r	8r	4.b-
.	8G	8d-	.
4r	8G	8d-	.
.	8G	8d-	8b
=11	=11	=11	=11
4AA-	8r	8r	2cc
.	8A-	8c	.
4r	8A-	8c	.
.	8A-	8c	.
4BB-	8r	8r	4.a-
.	8F	8d	.
4r	8F	8d	.
.	8F	8d	16f
.	.	.	16d
=12	=12	=12	=12
8E-	8G	8e-	8e-
8r	8r	8r	8g
8BB-	8A-	8d	8b-
8r	8r	8r	16a-
.	.	.	16f
8EE-	4G	4e-	4e-
8GG	.	.	.
8BB-	4r	4r	8r
16AA-	.	.	16b-
16FF	.	.	16gg
=13	=13	=13	=13
4EE-	8e-	2b-	2gg
.	8g	.	.
4r	8b-	.	.
.	16g	.	.
.	16e-	.	.
8D	2d	8b	4.aa-
8F	.	8dd	.
8A-	.	8ff	.
16F	.	16dd	8b
16D	.	16b	.
=14	=14	=14	=14
2E-	2g	2cc	8cc
.	.	.	8ee-
.	.	.	8gg
.	.	.	16ee-
.	.	.	16cc
2F	2e-	8c	4b-
.	.	8e-	.
.	.	8g-	4a
.	.	16e-	.
.	.	16c	.
=15	=15	=15	=15
[1F	2d	2d	8b-
.	.	.	8dd
.	.	.	8ff
.	.	.	16dd
.	.	.	16b
.	2A	2e-	8cc
.	.	.	8ee-
.	.	.	8gg
.	.	.	16ee-
.	.	.	16cc
=16	=16	=16	=16
1F_	2B-	2d	8dd
.	.	.	8ff
.	.	.	8bb-
.	.	.	16ff
.	.	.	16dd
.	2G	2B-	8ee
.	.	.	8gg
.	.	.	8bb-
.	.	.	16gg
.	.	.	16ee
=17	=17	=17	=17
1F_	4A	4c	8ff
.	.	.	16cc
.	.	.	16a
.	4G	4B-	8ff
.	.	.	16ee
.	.	.	16cc
.	4A	4c	8ff
.	.	.	16cc
.	.	.	16a
.	4G	4B-	8ff
.	.	.	16ee
.	.	.	16cc
=18	=18	=18	=18
1F]	4A	4c	8ff
.	.	.	16cc
.	.	.	16a
.	4B-	4d	8ff
.	.	.	16dd
.	.	.	16b-
.	4c	4e-	8ff
.	.	.	16ee-
.	.	.	16cc
.	4B-	4d	8ff
.	.	.	16dd
.	.	.	16b-
=19	=19	=19	=19
4.F	4A	4c	4.f
.	2.r	4.r	.
16D	.	.	16f#
16E-	.	.	16g
2E-	.	.	4.g
.	.	16B	.
.	.	16c	.
.	.	[4c	.
.	.	.	16ee-
.	.	.	16cc
=20	=20	=20	=20
4.F	8r	8c]	4b-
.	16B	16d	.
.	16c	16e-	.
.	8c	8e-	8a
8G	8B-	8d	8b-
4.E-	4.e-	4.g	8.cc
.	.	.	16dd
.	.	.	8ee-
8F	8A	8e-	16f
.	.	.	16b-
=21	=21	=21	=21
8BB-	4B-	8d	8b-
8BB-	.	8d	8b-
8BB-	4r	8d	8b-
8BB-	.	16e-	16cc
.	.	16c	16a
8BB-	8f	8d	8b-
8BB-	8f	8b-	8dd
8BB-	8f	8b-	8dd
8BB-	8f	16cc	16ee-
.	.	16a	16cc
=22	=22	=22	=22
8BB-	8f	8b-	8dd
8BB-	8B-	8dd	8ff
8BB-	8B-	8dd	8ff
8BB-	8B-	16ee-	16gg
.	.	16cc	16ee-
8BB-	8B-	8dd	8ff
8B- 8D	8b- 8f	8b- 8ff	8bb- 8b- 8d
8B- 8D	8b- 8f	8ff 8b-	8bb- 8b- 8d
8B- 8D	8b- 8f	8ff 8b-	8bb- 8b- 8d
=23	=23	=23	=23
4BB- 4B- 4D	4b- 4d	4ff 4b-	8.ddd
.	.	.	16ccc
4.r	4.r	4.r	16bb-
.	.	.	16aa-
.	.	.	16gg
.	.	.	16ff
.	.	.	8ff
8G	8b-	8b-	16ee
.	.	.	16r
8r	8r	8r	8gg
8A	8a	8cc	16ff
.	.	.	16r
=24	=24	=24	=24
8r	8r	8r	8ccc
8F	8cc	8a	16ee-
.	.	.	16r
8r	8r	8r	8ee-
8G	8b-	8b-	16dd
.	.	.	16r
8r	8r	8r	8ff#
8E-	8g	8b-	16gg
.	.	.	16r
8r	8r	8r	8aa
8E	8g	8dd-	16bb-
.	.	.	16r
=25	=25	=25	=25
2F	2b-	2dd	24f
.	.	.	24b-
.	.	.	24a
.	.	.	24cc
.	.	.	24b-
.	.	.	24dd
.	.	.	24cc
.	.	.	24ee-
.	.	.	24dd
.	.	.	24ff
.	.	.	24ee-
.	.	.	24gg
2r	2r	2r	24ff
.	.	.	24bb-
.	.	.	24aa
.	.	.	24gg
.	.	.	24ff
.	.	.	24ee-
.	.	.	24dd
.	.	.	24cc
.	.	.	24b-
.	.	.	24a
.	.	.	24g
.	.	.	24f
=26	=26	=26	=26
24G	24B-	24d-	24e
24G	24B-	24d-	24e
24G	24B-	24d-	24e
24G	24B-	24d-	24e
24G	24B-	24d-	24e
24G	24B-	24d-	24e
24A	24F	24c	24e-
24A	24F	24c	24e-
24A	24F	24c	24e-
24A	24F	24c	24e-
24A	24F	24c	24e-
24A	24F	24c	24e-
4B-	4F	4B-	24d
.	.	.	24f
.	.	.	24b-
.	.	.	24dd
.	.	.	24ff
.	.	.	24aa
8r	8r	8r	8bb-
8D	8b-	[8b-	8ff#
=27	=27	=27	=27
8E-	8g	8b-]	16gg
.	.	.	16r
4.r	4.r	4.r	8bb
.	.	.	16ccc
.	.	.	16r
.	.	.	16eee-
.	.	.	16ccc
8F	8d	8b-	24bb-
.	.	.	24ddd
.	.	.	24fff
8F	8d	8b-	24fff
.	.	.	24fff
.	.	.	24fff
8F	8d	8b-	24fff
.	.	.	24ddd
.	.	.	24bb-
8F	8d	8b-	24fff
.	.	.	24ddd
.	.	.	24bb-
=28	=28	=28	=28
8F	8c	8b-	4ff
8F	8c	8b-	.
8F	8e-	8a	4ccc
8F	8e-	8a	.
4BB-	4d	4.b-	[2bb-
4r	4r	.	.
.	.	16b-	.
.	.	16ee-	.
=29	=29	=29	=29
1r	8g	8ee-	2..bb-]
.	8r	16b-	.
.	.	16dd	.
.	8f	8dd	.
.	8r	16b-	.
.	.	16gg	.
.	8e-	8gg	.
.	8r	16b-	.
.	.	16ff	.
.	8d	8ff	.
.	8r	8b-	16ff
.	.	.	16dd
=30	=30	=30	=30
2..r	8e-	8b-	8gg
.	8r	8r	16ee-
.	.	.	16cc
.	8f	8a	8ee-
.	8r	8r	16cc
.	.	.	16a
.	4.B-	4b-	[2b-
.	.	4r	.
16GG	16B-	.	.
16G	16e-	.	.
=31	=31	=31	=31
8G	8e-	2..r	2..b-]
16FF	16B-	.	.
16F	16d	.	.
8F	8d	.	.
16EE-	16B-	.	.
16E-	16g	.	.
8E-	8g	.	.
16DD	16B-	.	.
16D	16f	.	.
8D	8f	.	.
16D	16f	16a-	16b
16E-	16e-	16g	16cc
=32	=32	=32	=32
8E-	8e-	8g	8cc
8r	8r	8r	16cc
.	.	.	16ee-
8F	8A	8e- 8c	8ee-
8r	8r	8r	16f
.	.	.	16b-
4BB-	4B-	8d 8B-	4b-
.	.	4.r	.
8r	4r	.	4r
16F	.	.	.
16B-	.	.	.
=33	=33	=33	=33
8B-	8d	8b-	2..r
16F	8r	8r	.
16c	.	.	.
8c	8e-	8a	.
16F	8r	8r	.
16d	.	.	.
8d	8f	8a-	.
4.r	4.r	4.r	.
.	.	.	16b-
.	.	.	16ee-
=34	=34	=34	=34
8e-	8b-	8g	8ee-
8r	8r	8r	16b-
.	.	.	16ff
8d	8b-	8f	8ff
8r	8r	8r	16b-
.	.	.	16gg
8d-	8b-	8e-	8gg
4.r	4.r	4.r	4r
.	.	.	16ee-
.	.	.	16aa-
=35	=35	=35	=35
4A-	8r	8r	2aa-
.	8e-	8cc	.
4r	8e-	8cc	.
.	8e-	8cc	.
4E-	8r	8r	4.eee-
.	8e-	8dd-	.
4r	8e-	8dd-	.
.	16E-	8dd-	16ddd-
.	16A-	.	16bb-
=36	=36	=36	=36
4AA-	2A-	8r	2ccc
.	.	16cc	.
.	.	16ee-	.
3..r	.	8aa-	.
.	.	8aa-	.
.	4.e-	4aa-	8bb-
.	.	.	16b-
.	.	.	16dd-
.	.	[4gg	8bb-
24r	.	.	.
16C	16e	.	8bb-
16F	16c	.	.
=37	=37	=37	=37
2F	8f	8gg]	2aa-
.	16c	16a-	.
.	16f	16cc	.
.	8a-	8ff	.
.	8f	8ff	.
4.c	8c	4ff	4.gg
.	16c	.	.
.	16g	.	.
.	8b-	4ee	.
16B-	8b-	.	16cc
16G	.	.	16ff
=38	=38	=38	=38
4A-	2a-	8ff	2ff
.	.	16c	.
.	.	16f	.
2f	.	8a-	.
.	.	8f	.
.	2g	4.c	4.ccc
4e	.	.	.
.	.	[8cc	16bb-
.	.	.	16gg
=39	=39	=39	=39
4f	8f	8cc]	4aa-
.	16A-	4gg	.
.	16c	.	.
3..r	8f	.	4aa
.	8f	16ee-	.
.	.	16cc	.
.	8B-	4dd-	4.bb-
.	16d-	.	.
.	16f	.	.
.	8b-	4dd	.
24r	.	.	.
16BB-	8b-	.	16aa-
16E-	.	.	16ff
=40	=40	=40	=40
2E-	4e-	8ee-	4gg
.	.	16g	.
.	.	16b-	.
.	4g	8ee-	3..r
.	.	8ee-	.
4.B-	8f	4ee-	.
.	16B-	.	.
.	16f	.	.
.	8a-	8dd	.
.	.	.	24r
16A-	8a-	8b-	16b-
16F	.	.	16ee-
=41	=41	=41	=41
4G	8g	8ee-	2ee-
.	8B-	8g	.
4r	8B-	8g	.
.	8B-	8g	.
4BB-	8r	8r	4.bb-
.	8a-	8dd	.
4r	8a-	8dd	.
.	8a-	8dd	16aa-
.	.	.	16ff
=42	=42	=42	=42
4E-	4g	4ee-	8ee-
.	.	.	8gg
2.r	4.r	4.r	8bb-
.	.	.	16eee-
.	.	.	16bb-
.	.	.	4.bb-
.	16d	16f#	.
.	16e-	16g	.
.	8e-	8g	.
.	8r	8r	16ddd-
.	.	.	16ccc
=43	=43	=43	=43
1r	8r	8r	4.ccc
.	16e	16g	.
.	16f	16a-	.
.	8f	8a-	.
.	4r	4r	16ccc-
.	.	.	16bb-
.	.	.	4.bb-
.	16d	16f	.
.	16e-	16g	.
.	8e-	8g	.
.	8r	8r	16bb-
.	.	.	16aa
=44	=44	=44	=44
1r	8c	8e-	8aa
.	8r	8r	16aa
.	.	.	16aa-
.	8d	8f	8aa-
.	8r	8r	16aa-
.	.	.	16gg
.	8e-	8g	8gg
.	4.r	4r	16b-
.	.	.	16gg-
.	.	.	[4gg-
.	.	16b-	.
.	.	16cc-	.
=45	=45	=45	=45
4.r	8r	2.cc-	4.gg-]
.	16d	.	.
.	16e-	.	.
.	4.e-	.	.
16E-	.	.	16gg-
16F	.	.	16aa-
4.F	.	.	[2aa-
.	16c	.	.
.	16d-	.	.
.	[4d-	8r	.
16F	.	16a-	.
16G-	.	16b-	.
=46	=46	=46	=46
4.G-	4.d-]	4.b-	8aa-]
.	.	.	16ff
.	.	.	16gg-
.	.	.	4.gg-
8E-	8G-	16cc	.
.	.	16dd-	.
4D-	4A-	[2dd-	.
.	.	.	16ee-
.	.	.	16ff
8r	8r	.	8ff
16BB-	8d-	.	8gg
16AA-	.	.	.
=47	=47	=47	=47
4AA-	4e-	8dd-]	[3..aa-
.	.	16b-	.
.	.	16cc-	.
8r	8r	8cc-	.
8F	8A-	8dd	.
4E-	4B-	[2ee-	.
.	.	.	24aa-]
.	.	.	16ff
.	.	.	16gg-
8r	8r	.	8gg-
16C	8e-	.	8aa
16BB-	.	.	.
=48	=48	=48	=48
4BB-	4f	8ee-]	[3..bb-
.	.	16cc	.
.	.	16dd-	.
8r	8r	8dd-	.
8G	8B-	8ee	.
4F	4c	[2ff	.
.	.	.	24bb-]
.	.	.	16gg
.	.	.	16aa-
8r	8r	.	8aa-
16D-	8f	.	8bb
16C	.	.	.
=49	=49	=49	=49
4C	4g	8ff]	4.ccc
.	.	16dd	.
.	.	16ee	.
4r	4r	8ee	.
.	.	8r	16ee
.	.	.	16ddd-
8B-	8g	8ee	8ddd-
8r	8r	8r	16ff
.	.	.	16ccc
8A-	8f	8ff	8ccc
8r	8r	8r	16dd-
.	.	.	16bb-
=50	=50	=50	=50
4G	4e	4dd-	4bb-
8r	2.r	4r	4r
16C	.	.	.
16F	.	.	.
8F	.	8cc	8aa-
16C	.	8r	8r
16G	.	.	.
8G	.	8g	8ee
16C	.	8r	8r
16A-	.	.	.
=51	=51	=51	=51
4A-	4.r	8r	1ff
.	.	16c	.
.	.	16f	.
8r	.	8f	.
16F	16A-	4r	.
16A-	16c	.	.
4A-	8c	.	.
.	4r	16c	.
.	.	16f	.
8r	.	8f	.
16F	16A-	8r	.
16A-	16c	.	.
=52	=52	=52	=52
4A-	8c	8r	1ff#
.	4r	16c	.
.	.	16e-	.
8r	.	4.e-	.
16AA-	16C	.	.
16A-	16c	.	.
4A-	8c	.	.
.	4r	16c	.
.	.	16e-	.
8r	.	[4e-	.
16A-	16C	.	.
16AA-	16c	.	.
=53	=53	=53	=53
4.GG	4.c	8e-]	2gg
.	.	16c	.
.	.	16e-	.
.	.	4.e-	.
16G	16C	.	.
16GG	16c	.	.
4.FF#	4.c	.	2aa
.	.	16c	.
.	.	16e-	.
.	.	4e-	.
16FF#	16C	.	.
16F#	16c	.	.
=54	=54	=54	=54
[1G	4B	4d	8gg
.	.	.	16dd
.	.	.	16b
.	4c	4e-	8ff#
.	.	.	16ee-
.	.	.	16cc
.	4B	4d	8gg
.	.	.	16dd
.	.	.	16b
.	4c	4e-	8ff#
.	.	.	16ee-
.	.	.	16cc
=55	=55	=55	=55
1G]	4B	4d	8gg
.	.	.	16dd
.	.	.	16b
.	4c	4e-	8gg
.	.	.	16ee-
.	.	.	16cc
.	4d	4f	8gg
.	.	.	16ff
.	.	.	16dd
.	4c	4e-	8gg
.	.	.	16ee-
.	.	.	16cc
=56	=56	=56	=56
4G	4B	4d	8gg
.	.	.	16dd
.	.	.	16b
4E-	4c	4c	8gg
.	.	.	16ee-
.	.	.	16cc
4F	4d	4B	24aa-
.	.	.	24gg
.	.	.	24ff
.	.	.	24ee-
.	.	.	24dd
.	.	.	24cc
4r	4r	4r	24b
.	.	.	24a-
.	.	.	24g
.	.	.	24f
.	.	.	24e-
.	.	.	24d
=57	=57	=57	=57
4.r	4.r	4.r	24c
.	.	.	24B
.	.	.	24A-
.	.	.	24G
.	.	.	24B
.	.	.	24d
.	.	.	24f
.	.	.	24e-
.	.	.	24d
8BB	8B	8d	24a-
.	.	.	24g
.	.	.	24f
8C	8c	8e-	24e-
.	.	.	24g
.	.	.	24cc
8F	8c	8a-	24a-
.	.	.	24f
.	.	.	24d
8G	8e-	8g	24g
.	.	.	24e-
.	.	.	24c
8GG	8d	8b	24f
.	.	.	24d
.	.	.	24B
=58	=58	=58	=58
8E-	8c	8cc	8c
8F	8f	8a-	8a-
8G	8e-	8g	8g
8GG	8d	8f	8B
2r	2r	2r	4.r
.	.	.	16G
.	.	.	16c
=59	=59	=59	=59
4C	8r	8r	2c
.	8G	8e-	.
4r	8G	8e-	.
.	8G	8e-	.
4GG	8r	8r	4.g
.	8F	8B	.
4r	8F	8B	.
.	8F	8B	16f
.	.	.	16d
=60	=60	=60	=60
4CC	4E-	4c	8c
.	.	.	8e-
4.r	4.r	4.r	8g
.	.	.	16cc
.	.	.	16g
.	.	.	4.g
8B-	8c	8e	.
8B-	8c	8e	.
8r	8r	8r	16cc
.	.	.	16f
=61	=61	=61	=61
8r	8r	8r	4.f
8A-	8c	8f	.
8A-	8c	8f	.
4r	4r	4r	16b
.	.	.	16f
.	.	.	4.f
8A-	8c-	8d	.
8A-	8c-	8d	.
8r	8r	8r	16b
.	.	.	16f
=62	=62	=62	=62
8A-	8c-	8d	8f
8r	8r	8r	16b
.	.	.	16f
8A-	8c-	8d	8f
8r	8r	8r	16b
.	.	.	16f
4A-	4B-	4d	4f
4r	4r	4r	8r
.	.	.	16B-
.	.	.	16e-
=63	=63	=63	=63
4E-	8r	8r	2e-
.	8G	8e-	.
4r	8G	8e-	.
.	8G	8e-	.
4BB-	8r	8r	4.b-
.	8A-	8d	.
4r	8A-	8d	.
.	8A-	8d	16a-
.	.	.	16f
=64	=64	=64	=64
4EE-	8r	8r	8e-
.	8G	8e-	8g
4r	8G	8e-	8b-
.	8G	8e-	16ee-
.	.	.	16b-
4E-	8r	8r	4.b-
.	8G	8d-	.
4r	8G	8d-	.
.	8G	8d-	8b
=65	=65	=65	=65
4AA-	8r	8r	2cc
.	8A-	8c	.
4r	8A-	8c	.
.	8A-	8c	.
4BB-	8r	8r	4.a-
.	8F	8d	.
4r	8F	8d	.
.	8F	8d	16f
.	.	.	16d
=66	=66	=66	=66
8E-	8G	8e-	8e-
8r	8r	8r	8g
8BB-	8A-	8d	8b-
8r	8r	8r	16a-
.	.	.	16f
4EE-	4G	4e-	4e-
4r	4r	4r	8r
.	.	.	16B-
.	.	.	16e-
=67	=67	=67	=67
8E-	3..r	3..r	8e-
8r	.	.	16B-
.	.	.	16f
8D	.	.	8f
8r	.	.	16B-
.	.	.	16g
4E-	.	.	4g
.	24r	24r	.
.	16dd	16ff#	.
.	16ee-	16gg	.
4r	8ee-	8gg	8r
.	8r	8r	16B-
.	.	.	16g
=68	=68	=68	=68
8E-	3..r	3..r	8g
8r	.	.	16B-
.	.	.	16a-
8F	.	.	8a-
8r	.	.	16B-
.	.	.	16b-
4G	.	.	4b-
.	24r	24r	.
.	16f#	16aa	.
.	16g	16bb-	.
4r	8g	8bb-	8r
.	8r	8r	16b-
.	.	.	16bb-
=69	=69	=69	=69
8D	8f	8b-	16bb-
.	.	.	16aa-
8r	8r	8r	16b-
.	.	.	16aa-
8E-	8g	8b-	16aa-
.	.	.	16gg
8r	8r	8r	16b-
.	.	.	16bb-
8D	8f	8b-	16bb-
.	.	.	16aa-
8r	8r	8r	16b-
.	.	.	16aa-
8E-	8e-	8b-	16aa-
.	.	.	16gg
8r	8g	16b-	8bb-
.	.	16bb-	.
=70	=70	=70	=70
1r	8a-	16bb-	4ccc
.	.	16cc	.
.	8f	16cc	.
.	.	16aa-	.
.	8d	16aa-	4bb-
.	.	16b-	.
.	8e-	16b-	.
.	.	16gg	.
.	8c	16gg	4aa-
.	.	16a-	.
.	8d	16a-	.
.	.	16ff	.
.	8e-	16ff	4gg
.	.	16g	.
.	8G	16g	.
.	.	16ee-	.
=71	=71	=71	=71
2r	8A-	16ee-	4ff
.	.	16f	.
.	8A-	16f	.
.	.	16ee-	.
.	8A	16ee-	8gg-
.	.	16e-	.
.	8A	16e-	16ff
.	.	16g-	16ee-
[2BB-	4.B-	2f	8dd
.	.	.	8ff
.	.	.	8aa-
.	8a-	.	16ff
.	.	.	16dd
=72	=72	=72	=72
1BB-_	2g	2g	8ee-
.	.	.	8gg
.	.	.	8bb-
.	.	.	16gg
.	.	.	16ee
.	2d	2a-	8ff
.	.	.	8aa-
.	.	.	8ccc
.	.	.	16aa-
.	.	.	16ff
=73	=73	=73	=73
1BB-_	2e-	2g	8gg
.	.	.	8bb-
.	.	.	8eee-
.	.	.	16bb-
.	.	.	16gg
.	2c	2e-	8aa
.	.	.	8ccc
.	.	.	8eee-
.	.	.	16ccc
.	.	.	16aa
=74	=74	=74	=74
1BB-_	4d	4f	8bb-
.	.	.	16ff
.	.	.	16dd
.	4c	4e-	8bb-
.	.	.	16aa
.	.	.	16ff
.	4d	4f	8bb-
.	.	.	16ff
.	.	.	16dd
.	4c	4e-	8bb-
.	.	.	16aa
.	.	.	16ff
=75	=75	=75	=75
1BB-_	4d	4f	8bb-
.	.	.	16ff
.	.	.	16dd
.	4e-	4g	8bb-
.	.	.	16gg
.	.	.	16ee-
.	4f	4a-	8bb-
.	.	.	16aa-
.	.	.	16ff
.	4e-	4g	8bb-
.	.	.	16gg
.	.	.	16ee-
=76	=76	=76	=76
4.BB-]	4d	4f	4.b-
.	2.r	4.r	.
16G	.	.	16b
16A-	.	.	16cc
2A-	.	.	4.cc
.	.	16e	.
.	.	16f	.
.	.	[4f	.
.	.	.	16aa-
.	.	.	16ff
=77	=77	=77	=77
4.B-	8r	8f]	4ee-
.	16e	16g	.
.	16f	16a-	.
.	8f	8a-	8dd
8c	8e-	8g	8ee-
4.A-	4.a-	4.cc	8.ff
.	.	.	16gg
.	.	.	8aa-
8B-	8d	8a-	16b-
.	.	.	16ee-
=78	=78	=78	=78
8E-	8e-	8g	8ee-
8E-	8B-	8g	8ee-
8E-	8B-	8g	8ee-
8E-	8B-	16a-	16ff
.	.	16f	16dd
8E-	8B-	8g	8ee-
8E-	8B-	8ee-	8gg
8E-	8B-	8ee-	8gg
8E-	8B-	16ff	16aa-
.	.	16dd	16ff
=79	=79	=79	=79
8E-	8B-	8ee-	8gg
8E-	8G	8gg	8bb-
8E-	8e-	8gg	8bb-
8E-	8e-	16aa-	16ccc
.	.	16ff	16aa-
8E-	8e-	8gg	8bb-
8GG 8E-	8d-	8bb- 8b-	8ddd- 8ee- 8g
8E- 8GG	8d-	8bb- 8b-	8g 8ddd- 8ee-
8E- 8GG	8d-	8bb- 8b-	8g 8ddd- 8ee-
=80	=80	=80	=80
4GG 4E-	4d-	4bb- 4b-	4g 4ddd- 4ee-
4.r	4.r	4.r	4r
.	.	.	8bb
8A-	8c	8e-	16ccc
.	.	.	16r
8r	8r	8r	8gg
8A-	8c	8f	16aa-
.	.	.	16r
=81	=81	=81	=81
8r	8r	8r	8ee
8A-	8c	8f	16ff
.	.	.	16r
8r	8r	8r	8gg
8A-	8c	8f	16aa-
.	.	.	16r
8r	8r	8r	8aa
8G	8B-	8e-	16bb-
.	.	.	16r
8r	8r	8r	8ff#
8G	8B-	8e-	16gg
.	.	.	16r
=82	=82	=82	=82
8r	8r	8r	8dd
8G	8B-	8e-	16ee-
.	.	.	16r
8r	8r	8r	8ff
8G	8B-	8e-	16gg
.	.	.	16r
4F	4A-	4d	8.aa-
.	.	.	16ff
4r	4r	4r	16ee-
.	.	.	16dd
.	.	.	16cc
.	.	.	16b-
=83	=83	=83	=83
2AA-	2.B-	2f	16a-
.	.	.	16g
.	.	.	16f
.	.	.	16e-
.	.	.	16d
.	.	.	16c
.	.	.	16B-
.	.	.	16A-
4GG	.	4e-	24G
.	.	.	24e-
.	.	.	24d
.	.	.	24f
.	.	.	24e-
.	.	.	24g
4r	4r	4r	24f
.	.	.	24a-
.	.	.	24g
.	.	.	24b-
.	.	.	24a-
.	.	.	24cc
=84	=84	=84	=84
4GG	4e-	4ee-	24b-
.	.	.	24ee-
.	.	.	24dd
.	.	.	24ee-
.	.	.	24gg
.	.	.	24ff
4r	4r	4r	24ee-
.	.	.	24dd
.	.	.	24cc
.	.	.	24b-
.	.	.	24a-
.	.	.	24g
8AA-	8e-	8cc	24f
.	.	.	24a-
.	.	.	24cc
8r	8r	8r	24cc
.	.	.	24cc
.	.	.	24cc
8AA-	8f	8cc	24cc
.	.	.	24ff
.	.	.	24aa-
8r	8r	8r	24aa-
.	.	.	24aa-
.	.	.	24aa-
=85	=85	=85	=85
8AA-	8f	8cc	24ff
.	.	.	24aa-
.	.	.	24ccc
8r	8r	8r	24ccc
.	.	.	24ccc
.	.	.	24ccc
8AA	8g-	8ee-	24aa
.	.	.	24ccc
.	.	.	24eee-
8r	8r	8r	24eee-
.	.	.	24eee-
.	.	.	24eee-
8BB-	8g	8ee-	8.eee-
8BB-	8g	8ee-	.
.	.	.	16bb-
8BB-	8g	8ee-	24eee-
.	.	.	24bb-
.	.	.	24gg
8BB-	8g	8ee-	24bb-
.	.	.	24gg
.	.	.	24ee-
=86	=86	=86	=86
8BB-	8f	8ee-	4b-
8BB-	8f	8ee-	.
8BB-	8A-	8dd	4ff
8BB-	8A-	8dd	.
4E-	4G	4ee-	[2ee-
4r	4r	8r	.
.	.	16e-	.
.	.	16a-	.
=87	=87	=87	=87
1r	8c	8a-	2..ee-]
.	8r	16e-	.
.	.	16g	.
.	8B-	8g	.
.	8r	16e-	.
.	.	16cc	.
.	8A-	8cc	.
.	8r	16e-	.
.	.	16b-	.
.	8G	8b-	.
.	8r	8r	16ee-
.	.	.	16b-
=88	=88	=88	=88
1r	8A-	8f	8cc
.	8r	8r	16cc
.	.	.	16f
.	8B-	8d	8a-
.	8r	8r	16a-
.	.	.	16d
.	[2E-	4e-	[2e-
.	.	8r	.
.	.	16e-	.
.	.	16A-	.
=89	=89	=89	=89
8C	2.E-]	8A-	2..e-]
8r	.	16e-	.
.	.	16G	.
8BB-	.	8G	.
16AA-	.	16e-	.
16A-	.	16c	.
8A-	.	8c	.
16GG	.	16e-	.
16G	.	16B-	.
8G	4r	8B-	.
8r	.	8r	16e
.	.	.	16f
=90	=90	=90	=90
8AA-	8A-	8c	8f
8r	8r	8r	16f
.	.	.	16a-
8BB-	8F	8d	8a-
8r	8r	8r	16B-
.	.	.	16e-
4EE-	4E-	4e-	4e-
4r	4r	4r	4r
==	==	==	==
*-	*-	*-	*-
!!!RWG1: This file contains only pitch and duration data.
!!!RWG2: Transposing instruments are not transposed.
!!!RWG3: Spines may have incompatible meters.
!!!RWG4: Durations of rests and tied notes may be interpreted.
!!!RWG: Key is interpreted using the Humdrum key tool.
!!!GTL: 6 Quators ("Jungfernquartette")
!!!OPT: The Joke
!!!AFT: stage1
!!!END: 1997/04/15
!!!KEY: 1967456327
!!!EMD: Converted from MuseData to Humdrum Dec 16, 2000, by Andreas Kornstaedt using muse2kern.
!!!EMD: Manual editing by Craig Sapp, Nov 2001
